assets/features/global-acquiring/icon_2.svg

<svg width="72" height="72" viewBox="0 0 72 72" fill="none" xmlns="http://www.w3.org/2000/svg">
<g clip-path="url(#clip0_1347_4130)">
<path d="M52 1H20C9.50659 1 1 9.50659 1 20V52C1 62.4934 9.50659 71 20 71H52C62.4934 71 71 62.4934 71 52V20C71 9.50659 62.4934 1 52 1Z" stroke="#9095A1" stroke-width="2"/>
<path d="M23.2646 19.1992C23.8127 18.9701 24.3573 18.9213 24.9658 19.1436C25.6081 19.3783 26.4162 19.9512 27.3818 21.1602C29.4119 23.7017 29.684 25.0195 29.5137 25.8359C29.4255 26.2582 29.1975 26.6672 28.8037 27.1426C28.599 27.3897 28.3712 27.6308 28.1172 27.8877L27.2744 28.7275C26.5167 29.4295 26.438 30.3896 26.623 31.2363C26.8072 32.079 27.2757 32.9829 27.8516 33.8643C29.0144 35.644 30.8271 37.6462 32.5674 39.4131C34.3089 41.1812 36.2632 42.9904 38.0273 44.1465C38.9029 44.7202 39.8052 45.1826 40.6602 45.3633C41.5414 45.5494 42.5054 45.4536 43.2441 44.7148L43.252 44.7061C43.8438 44.1002 44.3041 43.6009 44.7891 43.1963C45.2572 42.8058 45.6693 42.5761 46.0986 42.4854C46.928 42.3102 48.2685 42.5777 50.7979 44.6074L51.2227 44.9482L51.2441 44.9404C52.1881 45.76 52.6581 46.4558 52.8643 47.0215C53.0858 47.6294 53.0355 48.1745 52.8018 48.7256C52.5542 49.3093 52.1012 49.8958 51.5176 50.5098C50.8958 51.1638 50.3312 51.6512 49.6895 52.293L49.6875 52.2949C49.3031 52.6807 48.5228 52.999 47.2188 52.9932C45.9396 52.9874 44.297 52.6668 42.3906 51.9541C38.584 50.5309 33.8621 47.5971 29.127 42.8359C24.3903 38.0732 21.4605 33.3424 20.0381 29.541C19.3257 27.6371 19.0051 26.0022 19 24.7344C18.9949 23.4404 19.3151 22.681 19.6953 22.3145L19.7041 22.3057L19.7139 22.2969C20.3374 21.6645 20.8526 21.0725 21.4893 20.4688C22.1006 19.8891 22.6842 19.4419 23.2646 19.1992Z" stroke="#9095A1" stroke-width="2"/>
</g>
<defs>
<clipPath id="clip0_1347_4130">
<rect width="72" height="72" fill="white"/>
</clipPath>
</defs>
</svg>

<svg xmlns="http://www.w3.org/2000/svg" width="72" height="72" fill="none" viewBox="0 0 72 72"><g stroke="#9095a1" stroke-width="2" clip-path="url(#a)"><path d="M52 1H20C9.507 1 1 9.507 1 20v32c0 10.493 8.507 19 19 19h32c10.493 0 19-8.507 19-19V20C71 9.507 62.493 1 52 1Z"/><path d="M23.265 19.2c.548-.23 1.092-.279 1.7-.056.643.234 1.451.807 2.417 2.016 2.03 2.542 2.302 3.86 2.132 4.676-.088.422-.316.831-.71 1.307-.205.247-.433.488-.687.745l-.843.84c-.757.701-.836 1.662-.651 2.508.184.843.653 1.747 1.229 2.628 1.162 1.78 2.975 3.782 4.715 5.55 1.742 1.767 3.696 3.576 5.46 4.733.876.573 1.778 1.036 2.633 1.216.881.186 1.845.09 2.584-.648l.008-.009c.592-.606 1.052-1.105 1.537-1.51.468-.39.88-.62 1.31-.71.829-.176 2.17.092 4.699 2.121l.425.341.021-.008c.944.82 1.414 1.516 1.62 2.082.222.607.172 1.153-.062 1.704-.248.583-.7 1.17-1.284 1.784-.622.654-1.187 1.141-1.828 1.783l-.002.002c-.385.386-1.165.704-2.47.698-1.278-.006-2.921-.326-4.827-1.039-3.807-1.423-8.529-4.357-13.264-9.118-4.737-4.763-7.666-9.494-9.089-13.295-.712-1.904-1.033-3.539-1.038-4.807-.005-1.294.315-2.053.695-2.42l.01-.008.009-.01c.623-.631 1.139-1.223 1.775-1.827.612-.58 1.195-1.027 1.776-1.27Z"/></g><defs><clipPath id="a"><path fill="#fff" d="M0 0h72v72H0z"/></clipPath></defs></svg>
